X: 1
T:Peggy's Wedding
M:6/8
L:1/8
S:Armitt MS
N:No time or key signature give
K:C major
cdc c2c2|ceg gec|cdc cdc|Bcd dcB|cdcc2c2|ceg gec|fgf efe|Bcd dBG:||:cdcg
2c|e2cg2c|cdcg2c|Bcd dBG|cdc gcc|ecc gcc|afd gec|Bcd dBG:||
